styles/2/Numix/128/places/default-folder-templates.svg

<?xml version="1.0" encoding="UTF-8" standalone="no"?>
<svg
   xmlns:dc="http://purl.org/dc/elements/1.1/"
   xmlns:cc="http://creativecommons.org/ns#"
   xmlns:rdf="http://www.w3.org/1999/02/22-rdf-syntax-ns#"
   xmlns:svg="http://www.w3.org/2000/svg"
   xmlns="http://www.w3.org/2000/svg"
   xmlns:sodipodi="http://sodipodi.sourceforge.net/DTD/sodipodi-0.dtd"
   xmlns:inkscape="http://www.inkscape.org/namespaces/inkscape"
   width="128px"
   height="128px"
   viewBox="0 0 128 128"
   version="1.1"
   id="svg24149"
   inkscape:version="0.91 r"
   sodipodi:docname="default-folder-templates.svg">
  <metadata
     id="metadata24162">
    <rdf:RDF>
      <cc:Work
         rdf:about="">
        <dc:format>image/svg+xml</dc:format>
        <dc:type
           rdf:resource="http://purl.org/dc/dcmitype/StillImage" />
      </cc:Work>
    </rdf:RDF>
  </metadata>
  <defs
     id="defs24160" />
  <sodipodi:namedview
     pagecolor="#ffffff"
     bordercolor="#666666"
     borderopacity="1"
     objecttolerance="10"
     gridtolerance="10"
     guidetolerance="10"
     inkscape:pageopacity="0"
     inkscape:pageshadow="2"
     inkscape:window-width="640"
     inkscape:window-height="480"
     id="namedview24158" />
  <g
     id="surface1">
    <path
       style=" stroke:none;fill-rule:nonzero;fill:rgb(91.372549%,69.019608%,50.196078%);fill-opacity:1;"
       d="M 18 16 C 15.070312 16 12 19.023438 12 22 L 12 24 L 6 24 C 3.058594 24 0 26.992188 0 30 L 0 106 C 0 110 2 112 6 112 L 122 112 C 125.136719 112 128 109.285156 128 106 L 128 40 C 128 36.988281 125.089844 34 122 34 L 116 34 L 116 22 C 116 19.078125 113.09375 16 110 16 Z M 18 16 "
       id="path24152" />
    <path
       style=" stroke:none;fill-rule:nonzero;fill:rgb(0%,0%,0%);fill-opacity:0.321569;"
       d="M 18 16 C 15.070312 16 12 19.023438 12 22 L 12 24 L 6 24 C 3.058594 24 0 26.992188 0 30 L 0 106 C 0 110 2 112 6 112 L 122 112 C 125.136719 112 128 109.285156 128 106 L 128 40 C 128 36.988281 125.089844 34 122 34 L 116 34 L 116 22 C 116 19.078125 113.09375 16 110 16 Z M 6 28 L 74 28 C 75.179688 28 76 29.03125 76 30 L 76 38 L 122 38 C 123.011719 38 124 39.015625 124 40 L 124 106 C 124 107.042969 123.042969 108 122 108 L 6 108 C 5.070312 108 4 107.207031 4 106 L 4 30 C 4 29.015625 5.03125 28 6 28 Z M 6 28 "
       id="path24154" />
    <path
       style=" stroke:none;fill-rule:nonzero;fill:rgb(0%,0%,0%);fill-opacity:0.321569;"
       d="M 42 48 C 42 48 38 48.152344 38 52 L 38 60 L 46 60 L 46 56 L 50 56 L 50 48 Z M 54 48 L 54 56 L 62 56 L 62 48 Z M 66 48 L 66 56 L 74 56 L 74 48 Z M 78 48 L 78 56 L 82 56 L 82 60 L 90 60 L 90 52 C 90 48 86 48 86 48 Z M 38 64 L 38 72 L 46 72 L 46 64 Z M 82 64 L 82 72 L 90 72 L 90 64 Z M 38 76 L 38 84 L 46 84 L 46 76 Z M 82 76 L 82 84 L 90 84 L 90 76 Z M 38 88 L 38 96 C 38 100 42 100 42 100 L 50 100 L 50 92 L 46 92 L 46 88 Z M 82 88 L 82 92 L 78 92 L 78 100 L 86 100 C 86 100 90 100 90 96 L 90 88 Z M 54 92 L 54 100 L 62 100 L 62 92 Z M 66 92 L 66 100 L 74 100 L 74 92 Z M 66 92 "
       id="path24156" />
  </g>
</svg>

<svg xmlns="http://www.w3.org/2000/svg" viewBox="0 0 128 128">
 <g>
  <path d="m 18 16 c -2.93 0 -6 3.02 -6 6 l 0 2 l -6 0 c -2.941 0 -6 2.992 -6 6 l 0 76 c 0 4 2 6 6 6 l 116 0 c 3.137 0 6 -2.715 6 -6 l 0 -66 c 0 -3.01 -2.91 -6 -6 -6 l -6 0 l 0 -12 c 0 -2.922 -2.906 -6 -6 -6 m -92 0" style="fill:#e8b07f;fill-opacity:1;stroke:none;fill-rule:nonzero"/>
  <path d="m 18 16 c -2.93 0 -6 3.02 -6 6 l 0 2 l -6 0 c -2.941 0 -6 2.992 -6 6 l 0 76 c 0 4 2 6 6 6 l 116 0 c 3.137 0 6 -2.715 6 -6 l 0 -66 c 0 -3.01 -2.91 -6 -6 -6 l -6 0 l 0 -12 c 0 -2.922 -2.906 -6 -6 -6 m -104 12 l 68 0 c 1.18 0 2 1.031 2 2 l 0 8 l 46 0 c 1.012 0 2 1.016 2 2 l 0 66 c 0 1.043 -0.957 2 -2 2 l -116 0 c -0.93 0 -2 -0.793 -2 -2 l 0 -76 c 0 -0.984 1.031 -2 2 -2 m 0 0" style="fill:#000;fill-opacity:0.322;stroke:none;fill-rule:nonzero"/>
  <path d="m 42 48 c 0 0 -4 0.152 -4 4 l 0 8 l 8 0 l 0 -4 l 4 0 l 0 -8 m 4 0 l 0 8 l 8 0 l 0 -8 m 4 0 l 0 8 l 8 0 l 0 -8 m 4 0 l 0 8 l 4 0 l 0 4 l 8 0 l 0 -8 c 0 -4 -4 -4 -4 -4 m -48 16 l 0 8 l 8 0 l 0 -8 m 36 0 l 0 8 l 8 0 l 0 -8 m -52 12 l 0 8 l 8 0 l 0 -8 m 36 0 l 0 8 l 8 0 l 0 -8 m -52 12 l 0 8 c 0 4 4 4 4 4 l 8 0 l 0 -8 l -4 0 l 0 -4 m 36 0 l 0 4 l -4 0 l 0 8 l 8 0 c 0 0 4 0 4 -4 l 0 -8 m -36 4 l 0 8 l 8 0 l 0 -8 m 4 0 l 0 8 l 8 0 l 0 -8 m -8 0" style="fill:#000;fill-opacity:0.322;stroke:none;fill-rule:nonzero"/>
 </g>
</svg>
